app/src/main/assets/symbols/place_of_worship/muslim.svg

<?xml version="1.0" encoding="UTF-8" standalone="no"?>
<svg
   xmlns:dc="http://purl.org/dc/elements/1.1/"
   xmlns:cc="http://creativecommons.org/ns#"
   xmlns:rdf="http://www.w3.org/1999/02/22-rdf-syntax-ns#"
   xmlns:svg="http://www.w3.org/2000/svg"
   xmlns="http://www.w3.org/2000/svg"
   version="1.1"
   width="16"
   height="16"
   viewBox="0 0 16 16"
   id="svg2">
  <metadata id="metadata8">
    <rdf:RDF>
      <cc:Work rdf:about="">
        <dc:format>image/svg+xml</dc:format>
        <dc:type rdf:resource="http://purl.org/dc/dcmitype/StillImage"/>
        <dc:title/>
      </cc:Work>
    </rdf:RDF>
  </metadata>
  <defs id="defs6"/>
  <rect width="16" height="16" x="0" y="0" id="canvas" style="fill:none;stroke:none;visibility:hidden"/>
  <path d="M 6,1 C 2.609585,1 0,3.6096 0,7 c 0,3.3904 2.609585,6 6,6 1.89566,0 3.873911,-0.6497 5,-2 -0.7358,0.479 -2.056597,1 -3,1 C 5.40733,12 3,9.5927 3,7 3,4.4073 5.40733,2 8,2 8.943403,2 10.2642,2.5211 11,3 9.873911,1.6498 7.89566,1 6,1 z M 10.5,4 9.5,6 7,6 9,7.5 8,10 10.5,8.5 13,10 12,7.5 14,6 11.5,6 10.5,4 z" id="muslim" style="fill:#000000;fill-opacity:1;stroke:none" transform="translate(1,1)"/>
</svg>

<?xml version="1.0" encoding="UTF-8"?>
<svg version="1.1" viewBox="0 0 16 16" xmlns="http://www.w3.org/2000/svg" xmlns:cc="http://creativecommons.org/ns#" xmlns:dc="http://purl.org/dc/elements/1.1/" xmlns:rdf="http://www.w3.org/1999/02/22-rdf-syntax-ns#">
<metadata>
<rdf:RDF>
<cc:Work rdf:about="">
<dc:format>image/svg+xml</dc:format>
<dc:type rdf:resource="http://purl.org/dc/dcmitype/StillImage"/>
<dc:title/>
</cc:Work>
</rdf:RDF>
</metadata>
<rect width="16" height="16" fill="none" visibility="hidden"/>
<path transform="translate(1,1)" d="m6 1c-3.3904 0-6 2.6096-6 6s2.6096 6 6 6c1.8957 0 3.8739-0.6497 5-2-0.7358 0.479-2.0566 1-3 1-2.5927 0-5-2.4073-5-5s2.4073-5 5-5c0.9434 0 2.2642 0.5211 3 1-1.1261-1.3502-3.1043-2-5-2zm4.5 3-1 2h-2.5l2 1.5-1 2.5 2.5-1.5 2.5 1.5-1-2.5 2-1.5h-2.5l-1-2z"/>
</svg>
